!!!OTL: Marksteinlied (3-27), S. 89
!!!id: P0999
**kern
*clefG2
*k[f#c#]
*e:
{4g
=1
4g
4f#
=2
*M4/4
2.e
4b
=3
*M2/4
4dd
4cc#
=4
2.b}
=5
{4b
=6
4a
8g
8g
=7
*M4/4
4g
4f#
2g
=8
*M2/4
2a
=9
2f#}
=10yy
4r
=11
{4g
=12
4g
4f#
=13
*M4/4
2.e
4e
=14
*M2/4
4d#
4e
=15
2.f#}
=16
{4a
=17
4g
4f#
=18
*M4/4
2.e
4e
=19
*M2/4
4d#
4e
=20
2.f#}
=21
{4e
=22
4g
4a
=23
*M4/4
2b
2a
=24
*M2/4
4g
4f#
=25
2.e}
==
*-
!!!minrhy: 8
!!!meters: 2/4 4/4 ]  ZZ[5
!!!cut: Marksteinlied (3-27), S. 89
!!!reg: Lothringen
!!!trd: PINCK, Louis: Verklingende Weisen, Bd3, Metz 1933
!!!rhy1: X_  X_X_  X__.X_  X_X_  X__.
!!!rhy2: X_  X_XX  X_X_X__  X__  X__0_
!!!key: P0999  08  E 2/4 4/4 ]  ZZ[5
!!!mod: ACHTTONSKALA MELODISCH MOLL OHNE 6b]  AMBITUS[7
!!!kad: 52221
!!!akz: 3b117b55_43b3b42_3b11-722_3b11-722_3b543b11_
!!!fot: 'a__b__c__cv_d__
!!!for: 'a__b__a__a__c__
!!!fok: 'Sa_Sd_Vd_Vd_^__
!! PHRAS[AUFTAKTIG]
!!!fkt: Habgier 
!! LOTH VKL
!! PR[40] 2K[0] 2G[0] 3K[11] 3G[3] 4A[6] 4Ü[0] 5A[0] 6K[3] 6G[0]
!! 7K[0] 7G[0] 8A[0] MEHR[0] SI[23] ABS[35] SR[0] SP[23]
!! ST[16] 2k[6] 2g[17] 3k[6] 3g[3] 4d[0] 4ü[3] 5d[0] 6k[3] 6g[0]
!! 7k[0] 7g[0] 8d[0] mehr[0] si[37] dm[-14] sr[23] sp[14]
!! 1F[6] 2F[56] 3F[33] 4F[0] LF[0] 2P[6] 3P[0] 4P[0] TRI[0] DF[4] AB[36]
!! TF[0] U3K[0] U3[0] U4[0] U4Ü[0] U5[0] U6K[0] U6[0] U7K[0] U7[6]
!! N1[8] N2K[0] N2[11] N3K[0] N3[36] N4[11] N4Ü[0] N5[22] N6K[0] N6[3]
!!!n7k: 0] N7[0] O1[3] O2K[0] O2[0] O3K[0] O3[0] HÖ[0
